X:1
T:J'ay trop soudainement
T:Clément Janequin
T:Source : La fleur des chansons à 3---Louvain---P.Phalèse---1574. Editor : André Vierendeels (22/08/18) Notes : Original clefs : G2, C3, C4 Original note values have been halved Editorial accidentals above the staff
T:J'ay trop soudainement
T:©
T:©
T:©
T:©
C:Clément Janequin
Z:©
%%score [ 1 [ 2 3 ] ]
L:1/8
Q:1/4=120
M:2/2
K:F
V:1 treble nm="Soprano" snm="S"
V:2 treble-8 nm="Tenor 1" snm="T 1"
V:3 treble-8 nm="Tenor 2" snm="T 2"
V:1
 G4 GA Bc | d3 c de d2- | d2 ^c2 d4- | d4 z2 d2 | d2 d2 f3 e | dc e3 d cB | AG G4 F2 | G2 G2 GABc | %8
w: J'ay trop _ sou- *|dai- * ne- * ment|_ ay- mé,|_ ne|sçay pont à _|_ _ qui me main- *|* * te- *|nir, ie veux et dois es-|
 d3 c de d2- | d2 ^c2 d4- | d4 z2 d2 | d2 d2 f3 e | dc e2 edcB | AG G4 F2 | G8 | D2 DD DDDD | %16
w: tre _ _ _ blas-|* * mé,-|* c'est|le mieux qui m'en|peut _ ad ve- * * *||nir,|mais quand ie pen- se'à sou- ve-|
 F6 F2 | FEFG A2 B2- | BA A4 G2 | A8- | A8 | B2 GB AGAB | A4 z4 | z2 B2 c2 A2 | G4 z2 B2 | %25
w: nir, com-|ment _ _ _ i'ay per-|* * du mon|temps,|_|ie puis bien di- re sans men-|tir,|par- don- ne|moy, ie|
 c2 d3 efe | dc e3 dcB | A2 G4 F2 | G2 B2 c2 A2 | G2 B2 c2 d2- | dcBA cBAG | FD G4 F2 | G8 |] %33
w: m'en re- * * *|||pens,- par- don- ne|moy, ie m'en re-|||pens.|
V:2
 z4 z2 g2 | g2 g2 fe fg | e2 e2 d2 z d | d2 d2 f3 e | dc B3 c d2- | d2 c2 A2 c2- | cB G2 A4 | %7
w: J'ay|trop sou- dai _ ne- *|ment ay- mé, ne|sçay point à _|_ _ qui _ _|_ _ me main-|* * * te-|
"^#" G4 z2 g2 | g2 g2 fe fg | e2 e2 d2 z d | d2 d2 f3 e | dc B3 c d2- | d2 c2 A2 c2- | cB G2 A4 | %14
w: nir, ie|veux et dois _ es- *|tre blas- mé, c'est|le mieux qui m'en|_ _ peut _ _|_ ad- ve- *||
 B8 | B2 GB AGAB | A2 A2 BABc | d6 d2 | dcBA B2 B2 | A4 f2 df | edef e2 z2 | g2 gg fdfg | %22
w: nir,|mais quand ie pen- se'à sou- ve-|nir com- ment _ _ _|_ i'ay|per- * * * du mon|temps, ie puis bien|di- re sans men- tir,|ie puis bien di- re sans men-|
 f2 f2 g2 e2 | d2 z d e2 f2 | B2 c2 d4 | e2 f3 edc | BA c3 BAG | F2 G2 A4 | z2 d2 e2 f2 | %29
w: tir, par- don- ne|moy, par- don- ne|moy, ie m'en|re- pens, _ _ _|_ _ _ _ _ _||par- don- ne|
 g4 e2 f2- | fedc edcB | A2 G2 A4 | G8 |] %33
w: moy, ie m'en|_ _ _ _ _ _ _ _|* * re-|pens.|
V:3
 z4 z2 G2 | GF GA B3 G | A2 A2 D4 | z2 d2 d2 d2 | f3 e dc B2- | BA c3 BAG | F2 G2 D4 | G4 z2 G2 | %8
w: J'ay|trop _ sou- * dai- ne-|ment ay- mé,|ne sçay point|à _ _ _ qui|_ me main- * * *|* * te-|nir, ie|
 GF GA B3 G | A2 A2 D4 | z2 d2 d2 d2 | f3 e dc B2- | BA c3 BAG | F2 G2 D4 | G8 | G2 GG DGFG | %16
w: veux _ et _ dois es-|tre blas- mé,|c'est le mieux|qui _ _ _ m'en|_ peut ad- * * *|* * ve-|nir,|mais quand ie pen- se'à sou- ve-|
 D4 z2 B,2 | B,CDE F2 B,2 | F2 F2 G4 | D4 d2 dd | Adcd A2 z2 | G2 GG dGdG | d2 A2 B2 c2 | %23
w: nir com-|ment _ _ _ _ i'ay|per- du mon|temps, ie puis bien|di- re sans men- tir,|ie puis bien di- re sans men-|tir, par- don- ne|
 d2 cB A2 F2 | G2 E2 D4 | z8 | z8 | z2 B2 c2 A2 | G4 z4 | z2 G2 AGFE | D4 C4 |"^b" D2 E2 D4 | G8 |] %33
w: moy, _ _ _ ie|m'en re- pens,|||par- don- ne|moy,|ie m'en- * * *||* * re-|pens.|

